cc-by-sa/knowledge/modules/history_of_type/lessons/display_type/images/GFKhistoftype5.3.svg

<svg xmlns="http://www.w3.org/2000/svg" width="1920" height="1080" fill="none"><path fill="#3C4043" fill-rule="evenodd" d="M367.6 153.598H265.607v209.15l-126.099 49.296h.058v72.99h354.073v-72.99h.06L367.6 362.748v-209.15Z" clip-rule="evenodd"/><path fill="#3C4043" d="M550.783 730.84h354.074v179.453H550.783V730.84Z"/><path fill="#3C4043" d="M682.831 827.145V555.034h89.979v272.111h-89.979ZM1626.31 153.598h-102v258.446h-126.04v72.99h354.08v-72.99h.06s-56.01-3.727-86.61-20.127c-30.83-13.781-38.59-25.415-39.49-59.169v-179.15Z"/><path fill="#3C4043" d="M1626.41 153.598h-102v179.15c-.9 33.754-8.66 45.388-39.49 59.169-30.6 16.4-86.61 20.127-86.61 20.127h228.1V153.598ZM676.823 153.598h101.994v209.15l126.098 123.471h-354.19l126.098-123.471v-209.15ZM1307.52 483.171c2.19 4.537 3.98 8.982 3.98 9.878 0 2.074 3.36 2.525-32.22-4.315-76.63-14.735-120.58-18.408-189.22-15.817-35.48 1.341-62.27 4.441-111.016 12.85-15.87 2.737-29.178 4.651-29.575 4.254-.397-.397 2.355-7.403 6.114-15.567 7.571-16.443 16.333-52.701 18.403-76.156 2.527-28.653-5.237-71.913-18.144-101.099-2.812-6.355-4.742-11.924-4.291-12.375.453-.45 5.649 2.836 11.549 7.303 11.194 8.475 24.833 14.206 33.631 14.13 9.949-.084 21.529-7.124 26.819-16.304 8.39-14.533 10.77-31.962 12.57-91.867.71-23.698 1.48-43.301 1.71-43.563.71-.826 41.74-1.106 118.96-.81l74.75.285-.36 54.609c-.4 59.061.22 65.672 7.56 80.305 5.69 11.355 16.2 17.275 30.8 17.345 9.75.046 27.25-8.828 38.45-19.503 7.02-6.687 6.93-4.334-.55 14.363-13.99 34.939-19.99 76.855-16.18 113.061 2.51 23.863 10.19 56.436 16.26 68.993Z"/><path fill="#3C4043" fill-rule="evenodd" d="m326.976 555.151.001.041-2.446-.02 2.445-.021Zm-16.606-.098 14.161.119-14.168.119.007-.238Z" clip-rule="evenodd"/><path fill="#3C4043" d="m337.268 907.961-10.291-352.769-2.446-.02-14.168.119-10.285 352.575c12.393.039 24.868.071 37.19.095Z"/><path fill="#3C4043" d="m259.288 555.721-1.079 50.69c-1.067 50.201-1.136 50.809-7.148 63.05-12.8 26.068-30.582 37.151-63.561 39.618-11.012.824-20.477 2.237-21.036 3.141-.942 1.527-14.661 100.063-18.3 131.465-3.059 26.395-6.656 52.847-7.834 57.605-.932 3.764-.037 5.048 4.273 6.129 2.88.723 100.089.838 192.665.546v-.004c-12.322-.024-24.797-.056-37.19-.095l10.285-352.575-51.075.43ZM379.136 606.312l-1.078-50.69-51.081-.43 10.291 352.769c79.721.156 152.981-.014 155.475-.641 4.31-1.081 5.205-2.364 4.273-6.128-1.178-4.759-4.775-31.21-7.834-57.606-3.639-31.402-17.358-129.937-18.3-131.465-.559-.903-10.024-2.316-21.036-3.14-32.979-2.468-50.761-13.551-63.561-39.618-6.012-12.242-6.081-12.85-7.149-63.051ZM1596.1 854.528c-6.67 11.917-13.36 23.647-14.86 26.07-1.49 2.424-3.73 4.079-4.98 3.681-1.93-.619-8.23-9.409-36.16-50.453-2.31-3.391-5.06-6.178-6.11-6.191-1.05-.012-6.19 3.052-11.43 6.811-20.92 15.018-57.97 30.381-89.54 37.126-12.62 2.699-61.73 3.568-70.06 1.24l-5.29-1.476.53-30.912.52-30.911 6.67-.543c31.41-2.557 60.31-13.495 86.68-32.8 34.64-25.356 53.48-50.775 65.94-88.968 3.93-12.042 4.26-17.023 4.74-70.569.29-31.689 1.06-58.48 1.71-59.537 1.87-3.031 96.12-2.585 97.13.457.43 1.309 1.19 24.243 1.7 50.964 1.04 55.402 3.15 67.437 16.52 94.447 30.36 61.339 84.32 103.769 138.15 108.646l14.19 1.286.08 16.407c.05 9.025.35 21.765.67 28.313.36 7.095-.25 12.593-1.51 13.613-3.32 2.703-28.01 5.919-45.33 5.906-43.74-.031-83.66-12.289-120.51-37.002-7.26-4.866-14.12-8.492-15.25-8.057-1.13.432-7.52 10.537-14.2 22.452ZM1295.32 905.01c-2.86 2.855-29.1 10.185-58.22 16.261-13.13 2.742-25.03 5.05-26.43 5.128-3.38.186-9.67-7.993-14.68-19.101l-4.05-8.978-14.32-.12c-7.88-.065-28.98-.644-46.89-1.287-17.91-.643-39.47-.523-47.92.269l-15.36 1.437-5.81 11.861c-3.2 6.526-7.51 12.513-9.58 13.305-4.27 1.639-45.89-9.126-69.482-17.972-17.976-6.74-17.197-4.682-13.517-35.713 1.882-15.886 10.808-94.069 14.125-123.735 2.814-25.172 7.893-61.867 8.672-62.644.476-.475 5.542 1.359 11.262 4.079 15.49 7.367 28.66 8.069 39.3 2.09 19.59-11.012 23.95-25.511 24.48-81.295.21-21.906 1.04-40.913 1.86-42.237 1.05-1.693 19.79-2.236 63.21-1.83l61.72.577 1.08 51.079c1.05 49.298 1.28 51.451 6.57 61.721 10.37 20.15 33.88 26.178 56.36 14.456 5.13-2.673 10.06-4.068 10.95-3.105.89.964 3.14 14.453 5 29.975 1.86 15.521 7.97 63.195 13.58 105.942 6.63 50.484 9.46 78.463 8.09 79.837Z"/></svg>

<svg width="1920" height="1080" viewBox="0 0 1920 1080" fill="none" xmlns="http://www.w3.org/2000/svg">
<path fill-rule="evenodd" clip-rule="evenodd" d="M367.6 153.598H265.607V362.748L139.508 412.044L139.566 412.044V485.034H493.639V412.044L493.699 412.044L367.6 362.748V153.598Z" fill="#3C4043"/>
<path d="M550.783 730.84H904.857V910.293H550.783V730.84Z" fill="#3C4043"/>
<path d="M682.831 827.145L682.831 555.034L772.81 555.034L772.81 827.145L682.831 827.145Z" fill="#3C4043"/>
<path d="M1626.31 153.598H1524.31L1524.31 412.044L1398.27 412.044V485.034H1752.35V412.044L1752.41 412.044C1752.41 412.044 1696.4 408.317 1665.8 391.917C1634.97 378.136 1627.21 366.502 1626.31 332.748V153.598Z" fill="#3C4043"/>
<path d="M1626.41 153.598H1524.41C1524.41 153.598 1524.41 262.785 1524.41 332.748C1523.51 366.502 1515.75 378.136 1484.92 391.917C1454.32 408.317 1398.31 412.044 1398.31 412.044H1626.41L1626.41 332.748V153.598Z" fill="#3C4043"/>
<path d="M676.823 153.598H778.817V362.748L904.915 486.219H550.725L676.823 362.748V153.598Z" fill="#3C4043"/>
<path d="M1307.52 483.171C1309.71 487.708 1311.5 492.153 1311.5 493.049C1311.5 495.123 1314.86 495.574 1279.28 488.734C1202.65 473.999 1158.7 470.326 1090.06 472.917C1054.58 474.258 1027.79 477.358 979.044 485.767C963.174 488.504 949.866 490.418 949.469 490.021C949.072 489.624 951.824 482.618 955.583 474.454C963.154 458.011 971.916 421.753 973.986 398.298C976.513 369.645 968.749 326.385 955.842 297.199C953.03 290.844 951.1 285.275 951.551 284.824C952.004 284.374 957.2 287.66 963.1 292.127C974.294 300.602 987.933 306.333 996.731 306.257C1006.68 306.173 1018.26 299.133 1023.55 289.953C1031.94 275.42 1034.32 257.991 1036.12 198.086C1036.83 174.388 1037.6 154.785 1037.83 154.523C1038.54 153.697 1079.57 153.417 1156.79 153.713L1231.54 153.998L1231.18 208.607C1230.78 267.668 1231.4 274.279 1238.74 288.912C1244.43 300.267 1254.94 306.187 1269.54 306.257C1279.29 306.303 1296.79 297.429 1307.99 286.754C1315.01 280.067 1314.92 282.42 1307.44 301.117C1293.45 336.056 1287.45 377.972 1291.26 414.178C1293.77 438.041 1301.45 470.614 1307.52 483.171Z" fill="#3C4043"/>
<path fill-rule="evenodd" clip-rule="evenodd" d="M326.976 555.151L326.977 555.192L324.531 555.172L326.976 555.151ZM310.37 555.053L324.531 555.172L310.363 555.291L310.37 555.053Z" fill="#3C4043"/>
<path d="M337.268 907.961L326.977 555.192L324.531 555.172L310.363 555.291L300.078 907.866C312.471 907.905 324.946 907.937 337.268 907.961Z" fill="#3C4043"/>
<path d="M259.288 555.721L258.209 606.411C257.142 656.612 257.073 657.22 251.061 669.461C238.261 695.529 220.479 706.612 187.5 709.079C176.488 709.903 167.023 711.316 166.464 712.22C165.522 713.747 151.803 812.283 148.164 843.685C145.105 870.08 141.508 896.532 140.33 901.29C139.398 905.054 140.293 906.338 144.603 907.419C147.483 908.142 244.692 908.257 337.268 907.965L337.268 907.961C324.946 907.937 312.471 907.905 300.078 907.866L310.363 555.291L259.288 555.721Z" fill="#3C4043"/>
<path d="M379.136 606.312L378.058 555.622L326.977 555.192L337.268 907.961C416.989 908.117 490.249 907.947 492.743 907.32C497.053 906.239 497.948 904.956 497.016 901.192C495.838 896.433 492.241 869.982 489.182 843.586C485.543 812.184 471.824 713.649 470.882 712.121C470.323 711.218 460.858 709.805 449.846 708.981C416.867 706.513 399.085 695.43 386.285 669.363C380.273 657.121 380.204 656.513 379.136 606.312Z" fill="#3C4043"/>
<path d="M1596.1 854.528C1589.43 866.445 1582.74 878.175 1581.24 880.598C1579.75 883.022 1577.51 884.677 1576.26 884.279C1574.33 883.66 1568.03 874.87 1540.1 833.826C1537.79 830.435 1535.04 827.648 1533.99 827.635C1532.94 827.623 1527.8 830.687 1522.56 834.446C1501.64 849.464 1464.59 864.827 1433.02 871.572C1420.4 874.271 1371.29 875.14 1362.96 872.812L1357.67 871.336L1358.2 840.424L1358.72 809.513L1365.39 808.97C1396.8 806.413 1425.7 795.475 1452.07 776.17C1486.71 750.814 1505.55 725.395 1518.01 687.202C1521.94 675.16 1522.27 670.179 1522.75 616.633C1523.04 584.944 1523.81 558.153 1524.46 557.096C1526.33 554.065 1620.58 554.511 1621.59 557.553C1622.02 558.862 1622.78 581.796 1623.29 608.517C1624.33 663.919 1626.44 675.954 1639.81 702.964C1670.17 764.303 1724.13 806.733 1777.96 811.61L1792.15 812.896L1792.23 829.303C1792.28 838.328 1792.58 851.068 1792.9 857.616C1793.26 864.711 1792.65 870.209 1791.39 871.229C1788.07 873.932 1763.38 877.148 1746.06 877.135C1702.32 877.104 1662.4 864.846 1625.55 840.133C1618.29 835.267 1611.43 831.641 1610.3 832.076C1609.17 832.508 1602.78 842.613 1596.1 854.528Z" fill="#3C4043"/>
<path d="M1295.32 905.01C1292.46 907.865 1266.22 915.195 1237.1 921.271C1223.97 924.013 1212.07 926.321 1210.67 926.399C1207.29 926.585 1201 918.406 1195.99 907.298L1191.94 898.32L1177.62 898.2C1169.74 898.135 1148.64 897.556 1130.73 896.913C1112.82 896.27 1091.26 896.39 1082.81 897.182L1067.45 898.619L1061.64 910.48C1058.44 917.006 1054.13 922.993 1052.06 923.785C1047.79 925.424 1006.17 914.659 982.578 905.813C964.602 899.073 965.381 901.131 969.061 870.1C970.943 854.214 979.869 776.031 983.186 746.365C986 721.193 991.079 684.498 991.858 683.721C992.334 683.246 997.4 685.08 1003.12 687.8C1018.61 695.167 1031.78 695.869 1042.42 689.89C1062.01 678.878 1066.37 664.379 1066.9 608.595C1067.11 586.689 1067.94 567.682 1068.76 566.358C1069.81 564.665 1088.55 564.122 1131.97 564.528L1193.69 565.105L1194.77 616.184C1195.82 665.482 1196.05 667.635 1201.34 677.905C1211.71 698.055 1235.22 704.083 1257.7 692.361C1262.83 689.688 1267.76 688.293 1268.65 689.256C1269.54 690.22 1271.79 703.709 1273.65 719.231C1275.51 734.752 1281.62 782.426 1287.23 825.173C1293.86 875.657 1296.69 903.636 1295.32 905.01Z" fill="#3C4043"/>
</svg>
